X:1
T:Di nova luce
T:Giovanni Animuccio
T:Source : Primo libro delle Laude spirituali a tre voci---Roma---A.Gardano---1583. Editor : André Vierendeels (24/11/17). Notes : Original clefs : G2, C1, C3 Editorial accidentals above the staff
T:Di nova luce
T:©
T:©
C:Giovanni Animuccio
Z:©
%%score [ 1 2 3 ]
L:1/8
Q:1/4=120
M:2/2
K:F
V:1 treble nm="Soprano 1" snm="S 1"
V:2 treble nm="Soprano 2" snm="S 2"
V:3 treble-8 nm="Tenor" snm="T"
V:1
"^1)" c8 | A4 c2 B2- | B2 A2 G4 | F4 c4 | d2 d2 d4 | B4 A4 | G8 :: z4 A4 | B6 B2 | G2 A2 G4 | %10
w: Di|no- va lu-|* ce'a- dor-|na, l'al-|to fat- tor|il cie-|lo,|Hog-|gi ch'el|mo- ral ve-|
w: O|di che ric-|* che spo-|glie, car-|co si ri-|con- du-|ce,|il|tri- on-|fan- te Du-|
 G4 z2 c2 | d4 e4 | f8 | e4 c3 c | c2 c2 d4 | c2 B4 c2 | A2 B2 G4 | F8 :| %18
w: lo, del|ca- ro|fi-|glio glo- ri-|o- so'ac- co-|glio, glo- ri-|o- so'ac- co-|glio.|
w: ce, al-|la su-|per-|na Pa- tria'in|Pa- ra- di-|so, pa- tria'in|Pa- ra- di-|so?|
V:2
"^2)""^1)" A8 | F4 A2 D2- | D2 F2 E4 | F4 A4 | B2 B2 B4 | G4 ^F4 | G8 :: z4 ^F4 | G6 G2 | %9
w: Di|no- va lu-|* ce'a- dor-|na, l'al-|to fat- tor|il cie-|lo,|Hog-|gi ch'el|
w: Quel|che pur dian-|* zi'uc- ci-|so, fu|con ol- trag-|gio'e scher-|no,|Vin-|ci- tor|
 E2 F2 E4 | E4 z2 A2 | A4 c4- | c4 =B4 | c4 A3 A | A2 A2 B4 | A2 G4 G2 | F2 F4 E2 | F8 :| %18
w: mo- ral ve-|lo, del|ca- ro|_ fi-|glio glo- ri-|o- so'ac- co-|glio, glo- ri-|o- so'ac- co-|glio.|
w: dell' in- fer-|no, e|del- la|_ mor-|te'in cie- lo'hor|vi- n'e re-|gna'in cie- lo'hor|vi- n'e re-|gna.|
V:3
"^3)""^1)""^4)" F8 | F4 F2 G2- | G2 F2 c4 | F4 f4 | B2 B2 B4- | B2 G2 d4 | G8 :: z4 d4 | G6 G2 | %9
w: Di|no- va lu-|* ce'a- dor-|na, l'al-|to fat- tor|_ il cie-|lo,|Hog-|gi ch'el|
w: E|sot- to l'al-|* ma'in- se-|gna del-|la Cro- ce|_ ver- mi-|glia,|Pie-|na di|
 c2 F2 c4 | c4 z2 f2 | d4 c4 | d8 | c4 f3 f | f2 f2 B4 | c2 _e4 c2 | d2 B2 c4 | F8 :| %18
w: mo- ral ve-|lo, del|ca- ro|fi-|glio glo- ri-|o- so'ac- co-|glio, glo- ri-|o- so'ac- co-|glio.|
w: ma- ra- vi-|glia, e|d'al- le-|grez-|za'u- na gran|schie- ra'il se-|gue'u- na gran|schie- ra'il se-|gue.|

